src/pentobi_qml/qml/themes/light/square-red.svg

<?xml version="1.0" encoding="UTF-8" standalone="no"?>
<svg xmlns:rdf="http://www.w3.org/1999/02/22-rdf-syntax-ns#" xmlns="http://www.w3.org/2000/svg" height="20" width="20" version="1.1" xmlns:cc="http://creativecommons.org/ns#" xmlns:dc="http://purl.org/dc/elements/1.1/">
<g transform="translate(0 -1032.362)" fill="#e63e2c">
<rect fill-rule="evenodd" height="20" width="20" y="1032.4" x="0" fill="#e63e2c"/>
</g>
<path fill-opacity=".1372549" d="m0 20h20v-20l-1 1v18h-18z"/>
<path fill-opacity=".1568628" d="m0 20 1-1v-18h18l1-1h-20z" fill="#FFF"/>
</svg>

<?xml version="1.0" encoding="UTF-8" standalone="no"?>
<svg xmlns:rdf="http://www.w3.org/1999/02/22-rdf-syntax-ns#" xmlns="http://www.w3.org/2000/svg" height="20" width="20" version="1.1" xmlns:cc="http://creativecommons.org/ns#" xmlns:dc="http://purl.org/dc/elements/1.1/">
<metadata>
<rdf:RDF>
<cc:Work rdf:about="">
<dc:format>image/svg+xml</dc:format>
<dc:type rdf:resource="http://purl.org/dc/dcmitype/StillImage"/>
<dc:title/>
</cc:Work>
</rdf:RDF>
</metadata>
<g transform="translate(0,-1032.3623)" fill="#e63e2c">
<rect fill-rule="evenodd" height="20" width="20" y="1032.4" x="0" fill="#e63e2c"/>
</g>
<path fill="#000" d="M0,20,20,20,20,0,19,1,19,19,1,19z" fill-opacity="0.13725491"/>
<path fill="#FFF" d="M0,20,1,19,1,1,19,1,20,0,0,0z" fill-opacity="0.15686275"/>
</svg>
